!!!COM: Bach, Johann Sebastian
!!!CDT: 1685///-1750///
!!!CNT@EN: German
!!!OTL: Prelude from Cello Suite No. 4 in E-flat Major, BWV 1010
!!!OPR: Cello Suite No. 4 in E-flat Major, BWV 1010
!!!OMD: Prelude
!!!OMV: 1
!!!ODT: 1723///
!!!SCT: BWV 1010
!!!SCA: Thematisch-systematisches Verzeichnis der musikalischen Werke Johann Sebastian Bach: Bach-Werke-Verzeichnis (Schmieder)
**kern
*Icello
*clefF4
*k[b-e-a-]
*M2/2
*MM100
=1-
8EE-\L
8e-\
8B-\
8G\J
8B-\L
8E-\
8G\
8BB-\J
=2
8EE-\L
8e-\
8B-\
8G\J
8B-\L
8E-\
8G\
8BB-\J
=3
8EE-\L
8d-\
8B-\
8G\J
8B-\L
8E-\
8G\
8BB-\J
=4
8EE-\L
8d-\
8B-\
8G\J
8B-\L
8E-\
8G\
8BB-\J
=5
8EE-\L
8c\
8A-\
8E-\J
8A-\L
8C\
8E-\
8AA-\J
=6
8EE-\L
8c\
8A-\
8E-\J
8A-\L
8C\
8E-\
8AA-\J
=7
8EE-\L
8A-\
8F\
8D\J
8F/L
8BB-/
8D/
8AA-/J
=8
8EE-\L
8A-\
8F\
8D\J
8F/L
8BB-/
8D/
8AA-/J
=9
8EE-/L
8F/
8E-/
8BB-/J
8E-/L
8GG/
8BB-/
8EE-/J
=10
8DD/L
8G/
8E-/
8BB-/J
8E-/L
8GG/
8BB-/
8DD/J
=11
8CC\L
8e-\
8c\
8G\J
8c\L
8E-\
8G\
8C\J
=12
8BB-\L
8e-\
8c\
8G\J
8c\L
8E-\
8G\
8BB-\J
=13
8AAn\L
8e-\
8c\
8F\J
8An\L
8C\
8E-\
8AA\J
=14
8FF\L
8e-\
8c\
8An\J
8c\L
8F\
8A\
8E-\J
=15
8BB-\L
8d\
8B-\
8F\J
8B-\L
8D\
8F\
8BB-\J
=16
8AA-\L
8d-\
8B-\
8F\J
8B-\L
8D-\
8F\
8AA-\J
=17
8GG\L
8d-\
8B-\
8E-\J
8G/L
8BB-/
8E-/
8GG/J
=18
8EE-\L
8d-\
8B-\
8G\J
8B-\L
8E-\
8G\
8D-\J
=19
8AA-\L
8c\
8A-\
8E-\J
8A-\L
8C\
8E-\
8AA-\J
=20
8GG\L
8c\
8A-\
8E-\J
8A-\L
8C\
8E-\
8GG\J
=21
8FF/L
8A-/
8D/
8BBn/J
8D/L
8AA-/
8BB/
8FF/J
=22
8EE-/L
8A-/
8F/
8C/J
8F/L
8AA-/
8C/
8EE-/J
=23
8DD/L
8A-/
8F/
8BBn/J
8F/L
8GG/
8AA-/
8DD/J
=24
8CC/L
8A-/
8F/
8C/J
8F/L
8AA-/
8C/
8FF/J
=25
8BBn\L
8d\
8A-\
8F\J
8A-\L
8D\
8F\
8BB\J
=26
8GG\L
8d\
8Bn\
8F\J
8A-\L
8D\
8F\
8BBn\J
=27
8CC\L
8e-\
8c\
8G\J
8c\L
8E-\
8G\
8C\J
=28
8CC\L
8en\
8c\
8G\J
8c\L
8En\
8G\
8C\J
=29
8BB-\L
8en\
8c\
8G\J
8c\L
8En\
8G\
8C\J
=30
8AA-\L
8f\
8c\
8A-\J
8c\L
8F\
8A-\
8En\J
=31
8F\L
8c\
8A-\
8En\J
8F\L
8C\
8F\
8AA-\J
=32
8EEn\L
8d-\
8B-\
8G\J
8B-\L
8En\
8G\
8C\J
=33
8D-\L
8B-\
8A-\
8En\J
8F/L
8AA-/
8C/
8EEn/J
=34
8FF\L
8B-\
8A-\
8En\J
8F/L
8AA-/
8C/
8FF/J
=35
8EE-/L
8A-/
8F/
8C/J
8F/L
8AA-/
8C/
8EE-/J
=36
8DD\L
8A-\
8F\
8D\J
8F\L
8BB-\
8D\
8F\J
=37
8A-/L
8DD/
8FF/
8BB-/J
8D\L
8BB-\
8A-\
8F\J
=38
8EE-/L
8G/
8E-/
8BB-/J
8E-/L
8GG/
8BB-/
8EE-/J
=39
8GG/L
8BB-/
8E-/
8BB-/J
8G\L
8E-\
8B-\
8G\J
=40
8c\L
8AAn\
8C\
8F#\J
8An\L
8F#\
8c\
8A\J
=41
8e-\L
8GG\
8C\
8E-\J
8G\L
8E-\
8c\
8G\J
=42
8e-/L
8FF#/
8AAn/
8C/J
8E-\L
8C\
8F#\
8C\J
=43
8An\L
8D\
8F#\
8A\J
8c\L
8A\
8d\
8A\J
=44
8GG\L
8B-\
8G\
8D\J
8G/L
8BB-/
8D/
8GG/J
=45
8FF\L
8B-\
8G\
8D\J
8G/L
8BB-/
8D/
8GG/J
=46
8EE-\L
8B-\
8G\
8D\J
8G/L
8BB-/
8D/
8GG/J
=47
8DD\L
8B-\
8G\
8D\J
8G/L
8BB-/
8D/
8GG/J
=48
4.CC#;/
8r
8r
(16C#/LL
16D/JJ
16En\LL
16F#\
16G\
16An\JJ
=49
16B-\LL
16An\
16G\
16F#\JJ
16G\LL
16En\)
(16C#\
16D\JJ
16E\LL
16F#\
16G\
16A\JJ
16B-\LL
16A\
16G\
16A\JJ)
=50
(16B-\LL
16c\
16d\
16c\JJ
16e-\LL
16d\
16c\
16B-\JJ
16An\LL
16B-\
16c\
16B-\JJ
16A\LL
16G\
16F#\
16G\JJ)
=51
8DD\L
8c\
8An\
8F#\J
8A\L
8D\
8F#\
8AAn\J
=52
8DD\L
8c\
8An\
8F#\J
8A\L
8D\
8F#\
8AAn\J
=53
8DD\L
8B-\
8G\
8D\J
8G/L
8BB-/
8D/
8GG/J
=54
8DD\L
8B-\
8G\
8D\J
8G/L
8BB-/
8D/
8GG/J
=55
(16DD\LL
16c#\
16B-\
16An\JJ)
(16B-\LL
16c#\
16B-\
16A\JJ)
(16B-\LL
16c#\
16B-\
16A\JJ)
(16B-\LL
16c#\
16B-\
16A\JJ)
=56
(16G\LL
16B-\
16G\
16F#\JJ)
(16G\LL
16B-\
16G\
16F#\JJ)
(16G\LL
16B-\
16G\
16F#\JJ)
(16G\LL
16B-\
16G\
16F#\JJ)
=57
(16En\LL
16G\
16E\)
16D\JJ
(16C#/LL
16E/
16C#/
16BBn/JJ)
(16AAn/LL
16C#/
16AA/
16GG/JJ)
(16FF#/LL
16AA/
16FF#/
16EEn/JJ)
=58
*^
4F#/ [4e-/	8DD\ 8AA-\
.	8r
16e-/LL]	2.r
16d/	.
16c/	.
16B-/JJ	.
16An/LL	.
16G/	.
16F#/	.
16En/JJ	.
16D/LL	.
16C/	.
(16BB-/	.
16AAn/JJ	.
=59	=59
8.G/) 8.d/L	8DD\ 8BB-\
.	8r
&(16e-/Jk&)	.
(16B-/LL	4r
16An/	.
16B-/	.
16G/JJ)	.
8.G/ (8.B-/L	8C#\
.	8r
16A/Jk	.
(16G/LL)	4r
16F#/	.
16G/	.
16C#/JJ)	.
=60	=60
8D\ 8An\	(8.G/L
8r	.
.	16A/Jk
16G\LL)	2.r
16F#\	.
&(16G\&)	.
16En\JJ	.
(4.F#\	.
8G\)	.
*v	*v
=61
8GG\L
8B-\
8G\
8D\J
8G/L
8BB-/
8D/
8FF#/J
=62
8GG/L
8BB-/
8D/
8G/J
8B-\L
8G\
8d\
8Fn\J
=63
8GG\L
8d-\
8B-\
8G\J
8B-\L
8En\
8G\
8BB-\J
=64
8D-/L
8GG/
8BB-/
8En/J
8G\L
8E\
8d-\
8E\J
=65
8AA-\L
8c\
8A-\
8F\J
8A-\L
8C\
8F\
8AA-\J
=66
8C\L
8F\
8A-\
8F\J
8c\L
8F\
8d\
8A-\J
=67
8AAn\L
8e-\
8c\
8An\J
8c\L
8E-\
8G-\
8C\J
=68
8E-/L
8AAn/
8C/
8E-/J
8G-\L
8An\
8c\
8e-\J
=69
8BB-\L
8d\
(16c-\L
16B-\J
8An\J)
8B-\L
8d\
(16c-\L
16B-\J
8A\J)
=70
8B-\L
8c-\
(16B-\L
16A-\J
8G\J)
8A-\L
8c-\
(16B-\L
16A-\J
8G\J)
=71
8A-\L
8B-\
(16A-\L
16G-\J
8F\J)
8G-\L
8B-\
(16A-\L
16G-\J
8F\J)
=72
8G-\L
8G-\
(16F-\L
16E-\J
8D\J)
8E-\L
8G-\
(16F-\L
16E-\J
8D\J)
=73
(8E-\L
8C-\)
8E-\
8A-\J
8c-\L
8A-\
8e-\
8c-\J
=74
8A-\L
8c-\
8A-\
8E-\J
8C-/L
8AA-/
8F/
8AA-/J
=75
(8CCn/L
8AAn/
8G-/
8D/J)
(16E-\LL
16G-\
16E-\)
16D\JJ
(16E-\LL
16G-\
16E-\)
16D\JJ
=76
(16E-\LL
16An\
16G-\
16F\JJ)
(16G-\LL
16A\
16G-\
16F\JJ)
(16G-\LL
16c\
16G-\
16F\JJ)
(16G-\LL
16e-\
16G-\
16F\JJ)
=77
8G-\L
8BB-\
8E-\
8G-\J
8B-\L
8G-\
8e-\
8B-\J
=78
8G-\L
8E-\
8B-\
8G-\J
8E-\L
8BB-\
(8G-\
8E-\J)
=79
4AA-\ 4F--\ 4c-\
(16F--\LL
16G-\
16F--\
16G-\JJ)
(16A-\LL
16B--\
16A-\
16B--\JJ)
(16c-\LL
16B--\
16c-\
16B--\JJ)
=80
*^
2r	(16A-\LL
.	16G-\
.	16A-\
.	16G-\JJ)
.	(16F-\LL
.	16E-\
.	16D\
.	16E-\JJ)
4.D/	2BB-\
8E-/	.
*v	*v
=81
8EE-\L
8e-\
8B-\
8Gn\J
8B-\L
8E-\
8G\
8BB-\J
=82
8EE-\L
8e-\
8B-\
8G\J
8B-\L
8E-\
8G\
8BB-\J
=83
8EE-\L
8d-\
8B-\
8G\J
8B-\L
8E-\
8G\
8BB-\J
=84
8EE-\L
8d-\
8B-\
8G\J
8B-\L
8E-\
8G\
8BB-\J
=85
8EE-\L
8c\
8A-\
8E-\J
8A-\L
8C\
8E-\
8AA-\J
=86
8EE-\L
8c\
8A-\
8E-\J
8A-\L
8C\
8E-\
8AA-\J
=87
[4D\
(16D/LL]
16C/
16BB-/
16C/JJ)
(16D\LL
16E-\
16F\
16G\JJ
16A-\LL
16F\
16G\
16A-\JJ)
=88
(16D\LL
16E-\
16F\
16BB-\JJ)
16C\LL
16D\
16E-\
16F\JJ
16G\LL
16A-\
16B-\
16c\JJ
16d\LL
16c\
16e-\
16d\JJ
=89
([4d\
16d\LL]
16B-\)
16A-\
16G\JJ
16F\LL
16E-\
16D\
16C\JJ
16BB-/LL
16AA-/
16GG/
16FF/JJ
=90
*^
4G/ 4e-/	8EE-\ 8GG\
.	8r
2r	2r
*v	*v
==
*-
!!!ENC: Craig Stuart Sapp
!!!END: 2004/12/29/
